Sources/FrostedUI/Resources/Icons.xcassets/merch32.imageset/merch-32.svg

<svg width="32" height="32" viewBox="0 0 32 32" fill="none" xmlns="http://www.w3.org/2000/svg" data-fui-icon="true">
  <path
    d="M3.24038 13.7422L0.960931 9.17378C0.708777 8.66842 0.924862 8.05466 1.438 7.81874L11.375 3.25C11.375 3.25 11.875 7.25 16 7.25C20.125 7.25 20.625 3.25 20.625 3.25L30.562 7.81874C31.0751 8.05466 31.2912 8.66842 31.0391 9.17378L28.7596 13.7422C28.5414 14.1795 28.039 14.395 27.5717 14.2518L25.25 13.5401L25.25 27.75C25.25 28.3023 24.8023 28.75 24.25 28.75H7.75C7.19771 28.75 6.75 28.3023 6.75 27.75L6.75001 13.5401L4.42826 14.2518C3.96097 14.395 3.4586 14.1795 3.24038 13.7422Z"
    stroke="currentColor"
    stroke-width="1.5"
    stroke-linecap="round"
    stroke-linejoin="round"
  />
</svg>

<svg xmlns="http://www.w3.org/2000/svg" width="32" height="32" fill="none" data-fui-icon="true" viewBox="0 0 32 32"><path stroke="currentColor" stroke-linecap="round" stroke-linejoin="round" stroke-width="1.5" d="M3.24 13.742.96 9.174a1 1 0 0 1 .478-1.355l9.937-4.569s.5 4 4.625 4 4.625-4 4.625-4l9.937 4.569a1 1 0 0 1 .477 1.355l-2.28 4.568a1 1 0 0 1-1.187.51l-2.322-.712v14.21a1 1 0 0 1-1 1H7.75a1 1 0 0 1-1-1V13.54l-2.322.712a1 1 0 0 1-1.188-.51"/></svg>
